icons/dynamodb/dynamodb-original.svg

<svg width="128" height="128" viewBox="0 0 128 128" fill="none" xmlns="http://www.w3.org/2000/svg">
<g clip-path="url(#clip0_502_13)">
<path d="M80.6861 128.083H82.2439L107.673 115.37L108.096 114.772V13.3028L107.673 12.7017L82.2439 0H80.667L80.6861 128.083Z" fill="#5294CF"/>
<path d="M47.5939 128.083H46.0143L20.6072 115.37L20.0916 114.484L19.8301 13.8195L20.6072 12.7017L46.0143 0H47.6135L47.5939 128.083Z" fill="#1F5B98"/>
<path d="M46.0596 0H82.2198V128.083H46.0596V0Z" fill="#2D72B8"/>
<path d="M120.983 61.1637L120.124 60.9733L107.855 59.8296L107.672 59.9202L82.221 58.9027H46.059L20.607 59.9202V40.5174L20.5804 40.5316L20.607 40.4748L46.059 34.5791H82.221L107.672 40.4748L117.029 45.4467V42.2502L120.983 41.8178L120.574 41.0196L108.054 32.0698L107.672 32.1937L82.221 24.3094H46.059L20.607 32.1937V12.7017L7.29688 28.2904V41.9048L7.3999 41.8302L11.251 42.2502V45.5124L7.29688 47.6279V61.1744L7.3999 61.1637L11.251 61.2206V66.9063L7.92837 66.9561L7.29688 66.8957V80.4475L11.251 82.5732V85.8731L7.46252 86.2913L7.29688 86.167V99.7793L20.607 115.37V95.88L46.059 103.764H82.221L107.748 95.8569L108.087 96.0056L120.442 87.1877L120.983 86.3091L117.029 85.8731V82.6393L116.511 82.4325L108.054 86.9897L107.748 87.629L82.221 93.4906V93.4977H46.059V93.4906L20.607 87.6041V68.1303L46.059 69.1443V69.1692H82.221L107.672 68.1303L108.252 68.3967L120.144 67.3729L120.983 66.9632L117.029 66.9063V61.2206L120.983 61.1637Z" fill="#1A476F"/>
<path d="M107.673 95.88V115.37L120.983 99.7793V86.2558L107.75 95.8569L107.673 95.88ZM107.673 87.6468L107.75 87.629L120.983 80.5132V66.9063L107.673 68.1303V87.6468ZM107.75 40.4926L107.673 40.4748V59.9202L120.983 61.1637V47.5635L107.75 40.4926ZM107.75 32.27L120.983 41.8178V28.2939L107.673 12.7017V32.1937L107.75 32.2203V32.27Z" fill="#2D72B8"/>
</g>
<defs>
<clipPath id="clip0_502_13">
<rect width="128" height="128" fill="white"/>
</clipPath>
</defs>
</svg>

<svg xmlns="http://www.w3.org/2000/svg" fill="none" viewBox="0 0 128 128"><g clip-path="url(#a)"><path fill="#5294CF" d="M80.686 128.083h1.558l25.429-12.713.423-.598V13.302l-.423-.6L82.243 0h-1.576l.02 128.083Z"/><path fill="#1F5B98" d="M47.594 128.083h-1.58L20.607 115.37l-.515-.886L19.83 13.82l.777-1.118L46.014 0h1.6l-.02 128.083Z"/><path fill="#2D72B8" d="M46.06 0h36.16v128.083H46.06V0Z"/><path fill="#1A476F" d="m120.983 61.164-.859-.19-12.269-1.144-.183.09-25.451-1.017H46.059L20.607 59.92V40.517l-.027.015.027-.057 25.452-5.896h36.162l25.451 5.896 9.357 4.972V42.25l3.954-.432-.409-.798-12.52-8.95-.382.124-25.451-7.885H46.059l-25.452 7.885V12.702L7.297 28.29v13.615l.103-.075 3.851.42v3.262l-3.954 2.116v13.546l.103-.01 3.851.057v5.685l-3.323.05-.631-.06v13.552l3.954 2.125v3.3l-3.788.418-.166-.124v13.612l13.31 15.591V95.88l25.452 7.884h36.162l25.527-7.907.339.149 12.355-8.818.541-.879-3.954-.436V82.64l-.518-.206-8.457 4.557-.306.639-25.527 5.862v.007H46.059v-.007l-25.452-5.887V68.13l25.452 1.014v.025h36.162l25.451-1.039.58.267 11.892-1.024.839-.41-3.954-.057v-5.685l3.954-.057Z"/><path fill="#2D72B8" d="M107.673 95.88v19.49l13.31-15.59V86.255l-13.233 9.6-.077.024Zm0-8.233.077-.018 13.233-7.116V66.906l-13.31 1.224v19.517Zm.077-47.154-.077-.018V59.92l13.31 1.244v-13.6l-13.233-7.071Zm0-8.223 13.233 9.548V28.294l-13.31-15.592v19.492l.077.026v.05Z"/></g><defs><clipPath id="a"><path fill="#fff" d="M0 0h128v128H0z"/></clipPath></defs></svg>
